X:153
T:Ma belle si ton ame
C:J. B. Besard : Thesaurus Harmonicus
C:Gilles Durant de la Bergerie (1554-1605)
M:C|
L:1/4
K:Em
V:1
B, | EFGG | F2FB, | (^C/D/)EE^D |
E2zB, | EFGG | F2FB, | (^C/D/)EE^D | E3z |
(B>c)BA | G3F | GFBB | ^A2FF | GGEE |
F2DB, | ^CEE^D | E3z | Z8 |]
V:2 trebble-octave
f | gfgf/e/ | f2f2 | f<df2 |
e3f | gfgf/e/ | f2f2 | f<dzf | e4 |
d3d | g3f | efdz | f2f2 | g2c2 |
d2d2 | cgf2 | e2zb | b>c' ba | g3f |
gabg | a/g/f/e/ f/g/a/f/ | g/a/g/f/ e/f/g/e/ | f/g/f- f/f/e/d/ |
^c/^d/e f>f | e4 |]
V:3
B | e^de2 | B2B2 | F/G/AB2 |
z3B | e^de2 | B2B2 | F/G/AB2 | e2E2 |
z2Fd | e2EB | edge | f2B2 | e2A2 |
d2G2 | AeB2 | E2e2 | g3d | Gg2d |
defe | f2d2 | e2c2 | d>cB2 | A>cB2 | E4 |]






